Origami/32x32/apps/com.github.parnold-x.timer.svg

<svg width="32" height="32" version="1" xmlns="http://www.w3.org/2000/svg">
 <path d="m11.257 22.079c-0.74997-0.03976-1.61 0.3043-2.2955 0.98984l-2.9695 2.9695c-1.0969 1.0969-1.3176 2.6418-0.49492 3.4645 0.82265 0.82265 2.3676 0.60194 3.4645-0.49492l2.9695-2.9695c1.0969-1.0969 1.3176-2.6418 0.49492-3.4645-0.30849-0.30849-0.71896-0.47106-1.1689-0.49492zm9.4076 0c-0.44998 0.02386-0.85908 0.18643-1.1676 0.49492-0.82265 0.82265-0.60194 2.3676 0.49492 3.4645l2.9695 2.9695c1.0969 1.0969 2.6418 1.3176 3.4645 0.49492 0.82265-0.82265 0.60194-2.3676-0.49492-3.4645l-2.9695-2.9695c-0.68554-0.68554-1.5469-1.0296-2.2969-0.98984z" fill="#4f4f4f"/>
 <path d="m5 2a5 5 0 0 0 -5 5 5 5 0 0 0 5 5 5 5 0 0 0 5 -5 5 5 0 0 0 -5 -5zm22 0a5 5 0 0 0 -5 5 5 5 0 0 0 5 5 5 5 0 0 0 5 -5 5 5 0 0 0 -5 -5z" fill="#48a040"/>
 <path d="m5 2a5 5 0 0 0 -5 5 5 5 0 0 0 0.027344 0.5156 5 5 0 0 1 4.9727 -4.5156 5 5 0 0 1 4.9727 4.4844 5 5 0 0 0 0.0273 -0.4844 5 5 0 0 0 -5 -5zm22 0a5 5 0 0 0 -5 5 5 5 0 0 0 0.027 0.5156 5 5 0 0 1 4.973 -4.5156 5 5 0 0 1 4.973 4.4844 5 5 0 0 0 0.027 -0.4844 5 5 0 0 0 -5 -5z" fill="#fff" opacity=".2"/>
 <path d="m12.859 24.369c-0.119 0.576-0.427 1.17-0.927 1.67l-2.9711 2.969c-1.0968 1.097-2.6402 1.317-3.4629 0.494-0.2204-0.22-0.3597-0.493-0.4335-0.795-0.1428 0.686-0.0138 1.348 0.4335 1.795 0.8227 0.823 2.3661 0.603 3.4629-0.494l2.9711-2.971c0.803-0.803 1.129-1.844 0.927-2.668zm6.205 0c-0.201 0.824 0.125 1.865 0.928 2.668l2.969 2.971c1.097 1.097 2.642 1.317 3.465 0.494 0.447-0.447 0.576-1.109 0.433-1.795-0.073 0.302-0.213 0.575-0.433 0.795-0.823 0.823-2.368 0.603-3.465-0.494l-2.969-2.969c-0.5-0.5-0.808-1.094-0.928-1.67z" opacity=".2"/>
 <rect transform="matrix(0,-1,-1,0,0,0)" x="-30" y="-30" width="28" height="28" rx="14" ry="14" fill="#48a040"/>
 <path d="m16 2c-7.756 0-14 6.244-14 14 0 0.169 0.0195 0.333 0.0254 0.5 0.2637-7.5206 6.3874-13.5 13.975-13.5 7.587 0 13.711 5.9794 13.975 13.5 5e-3 -0.167 0.025-0.331 0.025-0.5 0-7.756-6.244-14-14-14z" fill="#fdd" opacity=".2"/>
 <rect transform="matrix(0,-1,-1,0,0,0)" x="-28" y="-28" width="24" height="24" rx="12" ry="12" fill="#fff" opacity=".7"/>
 <path d="m16 6a1 1 0 0 0 -1 1 1 1 0 0 0 1 1 1 1 0 0 0 1 -1 1 1 0 0 0 -1 -1zm5.689453 5.005859c-0.092936 0.0115-0.185007 0.040597-0.271484 0.089844l-5.990235 3.412109c-0.81737 0.40148-1.128175 1.452747-0.796875 2.060547l2.177735 3.720703c0.39905 0.681761 1.27695 0.913502 1.96875 0.519532 0.69181-0.39398 0.928347-1.259606 0.529297-1.941406l-2.16211-3.695313 4.994141-2.84375c0.3459-0.19699 0.463302-0.631596 0.263672-0.972656-0.149723-0.255795-0.434083-0.384108-0.712891-0.34961zm-14.689453 3.994141a1 1 0 0 0 -1 1 1 1 0 0 0 1 1 1 1 0 0 0 1 -1 1 1 0 0 0 -1 -1zm18 0a1 1 0 0 0 -1 1 1 1 0 0 0 1 1 1 1 0 0 0 1 -1 1 1 0 0 0 -1 -1zm-9 9a1 1 0 0 0 -1 1 1 1 0 0 0 1 1 1 1 0 0 0 1 -1 1 1 0 0 0 -1 -1z" style="opacity:.7"/>
 <path d="m2.0254 16.5c-0.0059 0.167-0.0254 0.331-0.0254 0.5 0 7.756 6.244 14 14 14s14-6.244 14-14c0-0.169-0.02-0.333-0.025-0.5-0.264 7.521-6.388 13.5-13.975 13.5-7.5872 0-13.711-5.979-13.975-13.5z" opacity=".2"/>
</svg>

<svg xmlns="http://www.w3.org/2000/svg" width="32" height="32" version="1">
 <path fill="#4f4f4f" d="m11.257 22.079c-0.74997-0.03976-1.61 0.3043-2.2955 0.98984l-2.9695 2.9695c-1.0969 1.0969-1.3176 2.6418-0.49492 3.4645 0.82265 0.82265 2.3676 0.60194 3.4645-0.49492l2.9695-2.9695c1.0969-1.0969 1.3176-2.6418 0.49492-3.4645-0.30849-0.30849-0.71896-0.47106-1.1689-0.49492zm9.4076 0c-0.44998 0.02386-0.85908 0.18643-1.1676 0.49492-0.82265 0.82265-0.60194 2.3676 0.49492 3.4645l2.9695 2.9695c1.0969 1.0969 2.6418 1.3176 3.4645 0.49492 0.82265-0.82265 0.60194-2.3676-0.49492-3.4645l-2.9695-2.9695c-0.68554-0.68554-1.5469-1.0296-2.2969-0.98984z"/>
 <path fill="#48a040" d="m5 2a5 5 0 0 0 -5 5 5 5 0 0 0 5 5 5 5 0 0 0 5 -5 5 5 0 0 0 -5 -5zm22 0a5 5 0 0 0 -5 5 5 5 0 0 0 5 5 5 5 0 0 0 5 -5 5 5 0 0 0 -5 -5z"/>
 <path fill="#fff" opacity=".2" d="m5 2a5 5 0 0 0 -5 5 5 5 0 0 0 0.027344 0.5156 5 5 0 0 1 4.9727 -4.5156 5 5 0 0 1 4.9727 4.4844 5 5 0 0 0 0.0273 -0.4844 5 5 0 0 0 -5 -5zm22 0a5 5 0 0 0 -5 5 5 5 0 0 0 0.027 0.5156 5 5 0 0 1 4.973 -4.5156 5 5 0 0 1 4.973 4.4844 5 5 0 0 0 0.027 -0.4844 5 5 0 0 0 -5 -5z"/>
 <path opacity=".2" d="m12.859 24.369c-0.119 0.576-0.427 1.17-0.927 1.67l-2.9711 2.969c-1.0968 1.097-2.6402 1.317-3.4629 0.494-0.2204-0.22-0.3597-0.493-0.4335-0.795-0.1428 0.686-0.0138 1.348 0.4335 1.795 0.8227 0.823 2.3661 0.603 3.4629-0.494l2.9711-2.971c0.803-0.803 1.129-1.844 0.927-2.668zm6.205 0c-0.201 0.824 0.125 1.865 0.928 2.668l2.969 2.971c1.097 1.097 2.642 1.317 3.465 0.494 0.447-0.447 0.576-1.109 0.433-1.795-0.073 0.302-0.213 0.575-0.433 0.795-0.823 0.823-2.368 0.603-3.465-0.494l-2.969-2.969c-0.5-0.5-0.808-1.094-0.928-1.67z"/>
 <rect fill="#48a040" width="28" height="28" x="-30" y="-30" rx="14" ry="14" transform="matrix(0,-1,-1,0,0,0)"/>
 <path fill="#fdd" opacity=".2" d="m16 2c-7.756 0-14 6.244-14 14 0 0.169 0.0195 0.333 0.0254 0.5 0.2637-7.5206 6.3874-13.5 13.975-13.5 7.587 0 13.711 5.9794 13.975 13.5 0.005-0.167 0.025-0.331 0.025-0.5 0-7.756-6.244-14-14-14z"/>
 <rect fill="#fff" opacity=".7" width="24" height="24" x="-28" y="-28" rx="12" ry="12" transform="matrix(0,-1,-1,0,0,0)"/>
 <path style="opacity:0.7" d="M 16 6 A 1 1 0 0 0 15 7 A 1 1 0 0 0 16 8 A 1 1 0 0 0 17 7 A 1 1 0 0 0 16 6 z M 21.689453 11.005859 C 21.596517 11.017359 21.504446 11.046456 21.417969 11.095703 L 15.427734 14.507812 C 14.610364 14.909292 14.299559 15.960559 14.630859 16.568359 L 16.808594 20.289062 C 17.207644 20.970823 18.085544 21.202564 18.777344 20.808594 C 19.469154 20.414614 19.705691 19.548988 19.306641 18.867188 L 17.144531 15.171875 L 22.138672 12.328125 C 22.484572 12.131135 22.601974 11.696529 22.402344 11.355469 C 22.252621 11.099674 21.968261 10.971361 21.689453 11.005859 z M 7 15 A 1 1 0 0 0 6 16 A 1 1 0 0 0 7 17 A 1 1 0 0 0 8 16 A 1 1 0 0 0 7 15 z M 25 15 A 1 1 0 0 0 24 16 A 1 1 0 0 0 25 17 A 1 1 0 0 0 26 16 A 1 1 0 0 0 25 15 z M 16 24 A 1 1 0 0 0 15 25 A 1 1 0 0 0 16 26 A 1 1 0 0 0 17 25 A 1 1 0 0 0 16 24 z"/>
 <path opacity=".2" d="m2.0254 16.5c-0.0059 0.167-0.0254 0.331-0.0254 0.5 0 7.756 6.244 14 14 14s14-6.244 14-14c0-0.169-0.02-0.333-0.025-0.5-0.264 7.521-6.388 13.5-13.975 13.5-7.5872 0-13.711-5.979-13.975-13.5z"/>
</svg>
